X:365
T:Goose Feathers
R:jig
M:6/8
L:1/8
K:G
d|gfg d^cd|B^AB GFG|DFA cBA|GBe def|
gfg d^cd|B^AB GFG|DFA cBA|G3 G2:|
K:D
A|a2z a2z|a^gb afd|Ace gfe|dfb a2A|
a2z a2z|a^gb afd|Ace gfe|d3 d2:|
